package/converter/svg/light/austral-sign.svg

<svg xmlns="http://www.w3.org/2000/svg" viewBox="0 0 448 512"><!-- Font Awesome Pro 6.0.0-alpha2 by @fontawesome - https://fontawesome.com License - https://fontawesome.com/license (Commercial License) --><path d="M432 320H356.449L329.371 256H432C440.844 256 448 248.844 448 240S440.844 224 432 224H315.834L238.734 41.766C233.734 29.922 214.266 29.922 209.266 41.766L132.166 224H16C7.156 224 0 231.156 0 240S7.156 256 16 256H118.629L91.551 320H16C7.156 320 0 327.156 0 336S7.156 352 16 352H78.012L33.266 457.766C29.828 465.906 33.625 475.297 41.766 478.734C49.812 482.141 59.281 478.391 62.734 470.234L112.756 352H335.244L385.266 470.234C387.844 476.344 393.766 480 400 480C402.078 480 404.203 479.594 406.234 478.734C414.375 475.297 418.172 465.906 414.734 457.766L369.988 352H432C440.844 352 448 344.844 448 336S440.844 320 432 320ZM224 89.062L281.09 224H166.91L224 89.062ZM126.295 320L153.373 256H294.627L321.705 320H126.295Z"/></svg>

<svg xmlns="http://www.w3.org/2000/svg" viewBox="0 0 448 512"><!--! Font Awesome Pro 6.6.0 by @fontawesome - https://fontawesome.com License - https://fontawesome.com/license (Commercial License) Copyright 2024 Fonticons, Inc. --><path d="M238.7 41.8c-2.5-5.9-8.3-9.8-14.7-9.8s-12.2 3.8-14.7 9.8L132.2 224 16 224c-8.8 0-16 7.2-16 16s7.2 16 16 16l102.6 0L91.6 320 16 320c-8.8 0-16 7.2-16 16s7.2 16 16 16l62 0L33.3 457.8c-3.4 8.1 .4 17.5 8.5 21s17.5-.4 21-8.5l50-118.2 222.5 0 50 118.2c3.4 8.1 12.8 11.9 21 8.5s11.9-12.8 8.5-21L370 352l62 0c8.8 0 16-7.2 16-16s-7.2-16-16-16l-75.5 0-27.1-64L432 256c8.8 0 16-7.2 16-16s-7.2-16-16-16l-116.2 0L238.7 41.8zM281.1 224l-114.2 0L224 89.1 281.1 224zM153.4 256l141.3 0 27.1 64-195.4 0 27.1-64z"/></svg>
